Newaita-dark/.places-mint/24/folder-wine.svg

<?xml version="1.0" encoding="UTF-8"?>
<svg xmlns="http://www.w3.org/2000/svg" xmlns:xlink="http://www.w3.org/1999/xlink" width="24px" height="24px" viewBox="0 0 24 24" version="1.1">
<defs>
<linearGradient id="linear0" gradientUnits="userSpaceOnUse" x1="254" y1="233.5" x2="254" y2="254.666672" gradientTransform="matrix(0.0468795,0,0,0.0468795,-0.0000028613,10.07909)">
<stop offset="0" style="stop-color:rgb(0%,0%,0%);stop-opacity:0.27451;"/>
<stop offset="1" style="stop-color:rgb(0%,0%,0%);stop-opacity:0;"/>
</linearGradient>
<radialGradient id="radial0" gradientUnits="userSpaceOnUse" cx="450.908936" cy="189.579361" fx="450.908936" fy="189.579361" r="21.166656" gradientTransform="matrix(0.000000130628,-0.0585994,-0.105479,-0.0000000761539,40.58641,47.696501)">
<stop offset="0" style="stop-color:rgb(0%,0%,0%);stop-opacity:0.313726;"/>
<stop offset="0.222222" style="stop-color:rgb(0%,0%,0%);stop-opacity:0.27451;"/>
<stop offset="1" style="stop-color:rgb(0%,0%,0%);stop-opacity:0;"/>
</radialGradient>
<radialGradient id="radial1" gradientUnits="userSpaceOnUse" cx="450.908936" cy="189.579361" fx="450.908936" fy="189.579361" r="21.166656" gradientTransform="matrix(-0.000000130628,0.0585994,0.105479,0.0000000761539,-16.771633,-5.645608)">
<stop offset="0" style="stop-color:rgb(0%,0%,0%);stop-opacity:0.313726;"/>
<stop offset="0.222222" style="stop-color:rgb(0%,0%,0%);stop-opacity:0.27451;"/>
<stop offset="1" style="stop-color:rgb(0%,0%,0%);stop-opacity:0;"/>
</radialGradient>
<radialGradient id="radial2" gradientUnits="userSpaceOnUse" cx="450.908936" cy="189.579361" fx="450.908936" fy="189.579361" r="21.166656" gradientTransform="matrix(-0.000000130628,-0.0585994,0.105479,-0.0000000761539,-16.771633,47.696501)">
<stop offset="0" style="stop-color:rgb(0%,0%,0%);stop-opacity:0.313726;"/>
<stop offset="0.222222" style="stop-color:rgb(0%,0%,0%);stop-opacity:0.27451;"/>
<stop offset="1" style="stop-color:rgb(0%,0%,0%);stop-opacity:0;"/>
</radialGradient>
<radialGradient id="radial3" gradientUnits="userSpaceOnUse" cx="450.908936" cy="189.579361" fx="450.908936" fy="189.579361" r="21.166656" gradientTransform="matrix(0.000000130628,0.0585994,-0.105479,0.0000000761539,40.586408,-5.645608)">
<stop offset="0" style="stop-color:rgb(0%,0%,0%);stop-opacity:0.313726;"/>
<stop offset="0.222222" style="stop-color:rgb(0%,0%,0%);stop-opacity:0.27451;"/>
<stop offset="1" style="stop-color:rgb(0%,0%,0%);stop-opacity:0;"/>
</radialGradient>
<linearGradient id="linear1" gradientUnits="userSpaceOnUse" x1="254" y1="-147.5" x2="254" y2="-31.083334" gradientTransform="matrix(0.0468795,0,0,0.0468795,0.000000937315,10.079086)">
<stop offset="0" style="stop-color:rgb(64.313728%,64.313728%,64.313728%);stop-opacity:0;"/>
<stop offset="1" style="stop-color:rgb(100%,100%,100%);stop-opacity:0.196078;"/>
</linearGradient>
<linearGradient id="linear2" gradientUnits="userSpaceOnUse" x1="254" y1="233.5" x2="254" y2="-105.166656" gradientTransform="matrix(0.0468795,0,0,0.0468795,-0.0000013593,10.079087)">
<stop offset="0" style="stop-color:rgb(34.509805%,34.509805%,34.509805%);stop-opacity:0;"/>
<stop offset="1" style="stop-color:rgb(98.039216%,98.039216%,98.039216%);stop-opacity:0.196078;"/>
</linearGradient>
</defs>
<g id="surface1">
<path style=" stroke:none;fill-rule:nonzero;fill:url(#linear0);" d="M 2.976562 21.027344 L 20.839844 21.027344 L 20.839844 22.019531 L 2.976562 22.019531 Z M 2.976562 21.027344 "/>
<path style=" stroke:none;fill-rule:nonzero;fill:url(#radial0);" d="M 20.839844 21.027344 L 22.824219 21.027344 L 22.824219 20.03125 L 20.839844 20.03125 Z M 20.839844 21.027344 "/>
<path style=" stroke:none;fill-rule:nonzero;fill:url(#radial1);" d="M 2.976562 21.027344 L 0.992188 21.027344 L 0.992188 22.019531 L 2.976562 22.019531 Z M 2.976562 21.027344 "/>
<path style=" stroke:none;fill-rule:nonzero;fill:url(#radial2);" d="M 2.976562 21.027344 L 0.992188 21.027344 L 0.992188 20.03125 L 2.976562 20.03125 Z M 2.976562 21.027344 "/>
<path style=" stroke:none;fill-rule:nonzero;fill:url(#radial3);" d="M 20.839844 21.027344 L 22.824219 21.027344 L 22.824219 22.019531 L 20.839844 22.019531 Z M 20.839844 21.027344 "/>
<path style=" stroke:none;fill-rule:nonzero;fill:rgb(61.176473%,80.000001%,39.607844%);fill-opacity:1;" d="M 5.457031 3.164062 L 21.582031 3.164062 C 22.128906 3.164062 22.574219 3.609375 22.574219 4.15625 L 22.574219 7.878906 C 22.574219 8.425781 22.128906 8.871094 21.582031 8.871094 L 5.457031 8.871094 C 4.910156 8.871094 4.464844 8.425781 4.464844 7.878906 L 4.464844 4.15625 C 4.464844 3.609375 4.910156 3.164062 5.457031 3.164062 Z M 5.457031 3.164062 "/>
<path style=" stroke:none;fill-rule:nonzero;fill:url(#linear1);" d="M 5.457031 3.164062 L 21.582031 3.164062 C 22.128906 3.164062 22.574219 3.609375 22.574219 4.15625 L 22.574219 7.878906 C 22.574219 8.425781 22.128906 8.871094 21.582031 8.871094 L 5.457031 8.871094 C 4.910156 8.871094 4.464844 8.425781 4.464844 7.878906 L 4.464844 4.15625 C 4.464844 3.609375 4.910156 3.164062 5.457031 3.164062 Z M 5.457031 3.164062 "/>
<path style=" stroke:none;fill-rule:nonzero;fill:rgb(100%,100%,100%);fill-opacity:0.392157;" d="M 5.457031 3.226562 C 4.90625 3.226562 4.464844 3.667969 4.464844 4.21875 L 4.464844 4.34375 C 4.464844 3.792969 4.90625 3.351562 5.457031 3.351562 L 21.582031 3.351562 C 22.132812 3.351562 22.574219 3.792969 22.574219 4.34375 L 22.574219 4.21875 C 22.574219 3.667969 22.132812 3.226562 21.582031 3.226562 Z M 5.457031 3.226562 "/>
<path style=" stroke:none;fill-rule:nonzero;fill:rgb(12.941177%,12.941177%,12.941177%);fill-opacity:1;" d="M 5.457031 3.09375 C 4.871094 3.09375 4.394531 3.570312 4.394531 4.15625 L 4.394531 7.878906 C 4.394531 8.464844 4.871094 8.941406 5.457031 8.941406 L 21.582031 8.941406 C 22.167969 8.941406 22.644531 8.464844 22.644531 7.878906 L 22.644531 4.15625 C 22.644531 3.570312 22.167969 3.09375 21.582031 3.09375 Z M 5.457031 3.234375 L 21.582031 3.234375 C 22.09375 3.234375 22.503906 3.644531 22.503906 4.15625 L 22.503906 7.878906 C 22.503906 8.390625 22.09375 8.800781 21.582031 8.800781 L 5.457031 8.800781 C 4.945312 8.800781 4.535156 8.390625 4.535156 7.878906 L 4.535156 4.15625 C 4.535156 3.644531 4.945312 3.234375 5.457031 3.234375 Z M 5.457031 3.234375 "/>
<path style=" stroke:none;fill-rule:nonzero;fill:rgb(68.235296%,83.529413%,50.588238%);fill-opacity:1;" d="M 1.984375 5.148438 C 1.433594 5.148438 0.992188 5.589844 0.992188 6.140625 L 0.992188 20.03125 C 0.992188 20.582031 1.433594 21.027344 1.984375 21.027344 L 21.832031 21.027344 C 22.378906 21.027344 22.824219 20.582031 22.824219 20.03125 L 22.824219 7.628906 L 9.425781 7.628906 C 8.878906 7.628906 8.433594 7.1875 8.433594 6.636719 L 8.433594 5.148438 Z M 1.984375 5.148438 "/>
<path style=" stroke:none;fill-rule:nonzero;fill:url(#linear2);" d="M 1.984375 5.148438 C 1.433594 5.148438 0.992188 5.589844 0.992188 6.140625 L 0.992188 20.03125 C 0.992188 20.582031 1.433594 21.027344 1.984375 21.027344 L 21.832031 21.027344 C 22.378906 21.027344 22.824219 20.582031 22.824219 20.03125 L 22.824219 7.628906 L 9.425781 7.628906 C 8.878906 7.628906 8.433594 7.1875 8.433594 6.636719 L 8.433594 5.148438 Z M 1.984375 5.148438 "/>
<path style=" stroke:none;fill-rule:nonzero;fill:rgb(0%,0%,0%);fill-opacity:0.196078;" d="M 1.984375 21.027344 C 1.433594 21.027344 0.992188 20.582031 0.992188 20.03125 L 0.992188 19.910156 C 0.992188 20.457031 1.433594 20.902344 1.984375 20.902344 L 21.832031 20.902344 C 22.378906 20.902344 22.824219 20.457031 22.824219 19.910156 L 22.824219 20.03125 C 22.824219 20.582031 22.378906 21.027344 21.832031 21.027344 Z M 1.984375 21.027344 "/>
<path style=" stroke:none;fill-rule:nonzero;fill:rgb(100%,100%,100%);fill-opacity:0.392157;" d="M 9.363281 7.753906 C 8.816406 7.753906 8.371094 7.3125 8.371094 6.761719 L 8.371094 6.636719 C 8.371094 7.1875 8.816406 7.628906 9.363281 7.628906 L 22.824219 7.628906 L 22.824219 7.753906 Z M 9.363281 7.753906 "/>
<path style=" stroke:none;fill-rule:nonzero;fill:rgb(100%,100%,100%);fill-opacity:0.392157;" d="M 1.984375 5.210938 C 1.433594 5.210938 0.992188 5.652344 0.992188 6.203125 L 0.992188 6.328125 C 0.992188 5.777344 1.433594 5.335938 1.984375 5.335938 L 8.433594 5.335938 L 8.433594 5.210938 Z M 1.984375 5.210938 "/>
<path style=" stroke:none;fill-rule:nonzero;fill:rgb(12.941177%,12.941177%,12.941177%);fill-opacity:1;" d="M 1.984375 5.078125 C 1.398438 5.078125 0.921875 5.554688 0.921875 6.140625 L 0.921875 20.03125 C 0.921875 20.621094 1.398438 21.097656 1.984375 21.097656 L 21.832031 21.097656 C 22.417969 21.097656 22.894531 20.621094 22.894531 20.03125 L 22.894531 7.488281 L 9.425781 7.488281 C 8.914062 7.488281 8.503906 7.078125 8.503906 6.566406 L 8.503906 5.078125 Z M 1.984375 5.21875 L 8.363281 5.21875 L 8.363281 6.566406 C 8.363281 7.15625 8.839844 7.628906 9.425781 7.628906 L 22.753906 7.628906 L 22.753906 20.03125 C 22.753906 20.546875 22.34375 20.957031 21.832031 20.957031 L 1.984375 20.957031 C 1.472656 20.957031 1.0625 20.546875 1.0625 20.03125 L 1.0625 6.140625 C 1.0625 5.628906 1.472656 5.21875 1.984375 5.21875 Z M 1.984375 5.21875 "/>
<path style=" stroke:none;fill-rule:nonzero;fill:rgb(54.509807%,76.47059%,29.019609%);fill-opacity:1;" d="M 8.929688 10.109375 C 8.65625 10.109375 8.433594 10.332031 8.433594 10.605469 L 8.433594 12.589844 C 8.433594 12.867188 8.65625 13.085938 8.929688 13.085938 L 10.914062 13.085938 C 11.191406 13.085938 11.410156 12.867188 11.410156 12.589844 L 11.410156 10.605469 C 11.410156 10.332031 11.191406 10.109375 10.914062 10.109375 Z M 12.898438 10.109375 C 12.625 10.109375 12.402344 10.332031 12.402344 10.605469 L 12.402344 12.589844 C 12.402344 12.867188 12.625 13.085938 12.898438 13.085938 L 14.882812 13.085938 C 15.160156 13.085938 15.378906 12.867188 15.378906 12.589844 L 15.378906 10.605469 C 15.378906 10.332031 15.160156 10.109375 14.882812 10.109375 Z M 8.929688 14.078125 C 8.65625 14.078125 8.433594 14.300781 8.433594 14.574219 L 8.433594 16.558594 C 8.433594 16.835938 8.65625 17.054688 8.929688 17.054688 L 10.914062 17.054688 C 11.191406 17.054688 11.410156 16.835938 11.410156 16.558594 L 11.410156 14.574219 C 11.410156 14.300781 11.191406 14.078125 10.914062 14.078125 Z M 12.898438 14.078125 C 12.625 14.078125 12.402344 14.300781 12.402344 14.574219 L 12.402344 16.558594 C 12.402344 16.835938 12.625 17.054688 12.898438 17.054688 L 14.882812 17.054688 C 15.160156 17.054688 15.378906 16.835938 15.378906 16.558594 L 15.378906 14.574219 C 15.378906 14.300781 15.160156 14.078125 14.882812 14.078125 Z M 12.898438 14.078125 "/>
<path style=" stroke:none;fill-rule:nonzero;fill:rgb(0%,0%,0%);fill-opacity:0.235294;" d="M 8.929688 10.109375 C 8.65625 10.109375 8.433594 10.332031 8.433594 10.605469 L 8.433594 10.792969 C 8.433594 10.519531 8.65625 10.296875 8.929688 10.296875 L 10.914062 10.296875 C 11.191406 10.296875 11.410156 10.519531 11.410156 10.792969 L 11.410156 10.605469 C 11.410156 10.332031 11.191406 10.109375 10.914062 10.109375 Z M 12.898438 10.109375 C 12.625 10.109375 12.402344 10.332031 12.402344 10.605469 L 12.402344 10.792969 C 12.402344 10.519531 12.625 10.296875 12.898438 10.296875 L 14.882812 10.296875 C 15.160156 10.296875 15.378906 10.519531 15.378906 10.792969 L 15.378906 10.605469 C 15.378906 10.332031 15.160156 10.109375 14.882812 10.109375 Z M 8.929688 14.078125 C 8.65625 14.078125 8.433594 14.300781 8.433594 14.574219 L 8.433594 14.761719 C 8.433594 14.488281 8.65625 14.265625 8.929688 14.265625 L 10.914062 14.265625 C 11.191406 14.265625 11.410156 14.488281 11.410156 14.761719 L 11.410156 14.574219 C 11.410156 14.300781 11.191406 14.078125 10.914062 14.078125 Z M 12.898438 14.078125 C 12.625 14.078125 12.402344 14.300781 12.402344 14.574219 L 12.402344 14.761719 C 12.402344 14.488281 12.625 14.265625 12.898438 14.265625 L 14.882812 14.265625 C 15.160156 14.265625 15.378906 14.488281 15.378906 14.761719 L 15.378906 14.574219 C 15.378906 14.300781 15.160156 14.078125 14.882812 14.078125 Z M 12.898438 14.078125 "/>
<path style=" stroke:none;fill-rule:nonzero;fill:rgb(100%,100%,100%);fill-opacity:0.392157;" d="M 8.433594 12.589844 L 8.433594 12.777344 C 8.433594 13.050781 8.65625 13.273438 8.929688 13.273438 L 10.914062 13.273438 C 11.191406 13.273438 11.410156 13.050781 11.410156 12.777344 L 11.410156 12.589844 C 11.410156 12.867188 11.191406 13.085938 10.914062 13.085938 L 8.929688 13.085938 C 8.65625 13.085938 8.433594 12.867188 8.433594 12.589844 Z M 12.402344 12.589844 L 12.402344 12.777344 C 12.402344 13.050781 12.625 13.273438 12.898438 13.273438 L 14.882812 13.273438 C 15.160156 13.273438 15.378906 13.050781 15.378906 12.777344 L 15.378906 12.589844 C 15.378906 12.867188 15.160156 13.085938 14.882812 13.085938 L 12.898438 13.085938 C 12.625 13.085938 12.402344 12.867188 12.402344 12.589844 Z M 8.433594 16.558594 L 8.433594 16.746094 C 8.433594 17.019531 8.65625 17.242188 8.929688 17.242188 L 10.914062 17.242188 C 11.191406 17.242188 11.410156 17.019531 11.410156 16.746094 L 11.410156 16.558594 C 11.410156 16.835938 11.191406 17.054688 10.914062 17.054688 L 8.929688 17.054688 C 8.65625 17.054688 8.433594 16.835938 8.433594 16.558594 Z M 12.402344 16.558594 L 12.402344 16.746094 C 12.402344 17.019531 12.625 17.242188 12.898438 17.242188 L 14.882812 17.242188 C 15.160156 17.242188 15.378906 17.019531 15.378906 16.746094 L 15.378906 16.558594 C 15.378906 16.835938 15.160156 17.054688 14.882812 17.054688 L 12.898438 17.054688 C 12.625 17.054688 12.402344 16.835938 12.402344 16.558594 Z M 12.402344 16.558594 "/>
<path style=" stroke:none;fill-rule:nonzero;fill:rgb(12.941177%,12.941177%,12.941177%);fill-opacity:1;" d="M 8.929688 10.039062 C 8.617188 10.039062 8.363281 10.292969 8.363281 10.605469 L 8.363281 12.589844 C 8.363281 12.902344 8.617188 13.15625 8.929688 13.15625 L 10.914062 13.15625 C 11.226562 13.15625 11.480469 12.902344 11.480469 12.589844 L 11.480469 10.605469 C 11.480469 10.292969 11.226562 10.039062 10.914062 10.039062 Z M 12.898438 10.039062 C 12.585938 10.039062 12.332031 10.292969 12.332031 10.605469 L 12.332031 12.589844 C 12.332031 12.902344 12.585938 13.15625 12.898438 13.15625 L 14.882812 13.15625 C 15.195312 13.15625 15.449219 12.902344 15.449219 12.589844 L 15.449219 10.605469 C 15.449219 10.292969 15.195312 10.039062 14.882812 10.039062 Z M 8.929688 10.179688 L 10.914062 10.179688 C 11.152344 10.179688 11.339844 10.371094 11.339844 10.605469 L 11.339844 12.589844 C 11.339844 12.828125 11.152344 13.015625 10.914062 13.015625 L 8.929688 13.015625 C 8.691406 13.015625 8.503906 12.828125 8.503906 12.589844 L 8.503906 10.605469 C 8.503906 10.371094 8.691406 10.179688 8.929688 10.179688 Z M 12.898438 10.179688 L 14.882812 10.179688 C 15.121094 10.179688 15.308594 10.371094 15.308594 10.605469 L 15.308594 12.589844 C 15.308594 12.828125 15.121094 13.015625 14.882812 13.015625 L 12.898438 13.015625 C 12.664062 13.015625 12.472656 12.828125 12.472656 12.589844 L 12.472656 10.605469 C 12.472656 10.371094 12.664062 10.179688 12.898438 10.179688 Z M 8.929688 14.007812 C 8.617188 14.007812 8.363281 14.261719 8.363281 14.574219 L 8.363281 16.558594 C 8.363281 16.871094 8.617188 17.125 8.929688 17.125 L 10.914062 17.125 C 11.226562 17.125 11.480469 16.871094 11.480469 16.558594 L 11.480469 14.574219 C 11.480469 14.261719 11.226562 14.007812 10.914062 14.007812 Z M 12.898438 14.007812 C 12.585938 14.007812 12.332031 14.261719 12.332031 14.574219 L 12.332031 16.558594 C 12.332031 16.871094 12.585938 17.125 12.898438 17.125 L 14.882812 17.125 C 15.195312 17.125 15.449219 16.871094 15.449219 16.558594 L 15.449219 14.574219 C 15.449219 14.261719 15.195312 14.007812 14.882812 14.007812 Z M 8.929688 14.148438 L 10.914062 14.148438 C 11.152344 14.148438 11.339844 14.339844 11.339844 14.574219 L 11.339844 16.558594 C 11.339844 16.796875 11.152344 16.984375 10.914062 16.984375 L 8.929688 16.984375 C 8.691406 16.984375 8.503906 16.796875 8.503906 16.558594 L 8.503906 14.574219 C 8.503906 14.339844 8.691406 14.148438 8.929688 14.148438 Z M 12.898438 14.148438 L 14.882812 14.148438 C 15.121094 14.148438 15.308594 14.339844 15.308594 14.574219 L 15.308594 16.558594 C 15.308594 16.796875 15.121094 16.984375 14.882812 16.984375 L 12.898438 16.984375 C 12.664062 16.984375 12.472656 16.796875 12.472656 16.558594 L 12.472656 14.574219 C 12.472656 14.339844 12.664062 14.148438 12.898438 14.148438 Z M 12.898438 14.148438 "/>
</g>
</svg>

<svg xmlns="http://www.w3.org/2000/svg" width="24" height="24"><defs><linearGradient id="a" gradientUnits="userSpaceOnUse" x1="254" y1="233.5" x2="254" y2="254.667" gradientTransform="matrix(.04688 0 0 .04688 0 10.08)"><stop offset="0" stop-opacity=".275"/><stop offset="1" stop-opacity="0"/></linearGradient><radialGradient id="b" gradientUnits="userSpaceOnUse" cx="450.909" cy="189.579" fx="450.909" fy="189.579" r="21.167" gradientTransform="matrix(0 -.0586 -.10548 0 40.586 47.697)"><stop offset="0" stop-opacity=".314"/><stop offset=".222" stop-opacity=".275"/><stop offset="1" stop-opacity="0"/></radialGradient><radialGradient id="c" gradientUnits="userSpaceOnUse" cx="450.909" cy="189.579" fx="450.909" fy="189.579" r="21.167" gradientTransform="matrix(0 .0586 .10548 0 -16.772 -5.646)"><stop offset="0" stop-opacity=".314"/><stop offset=".222" stop-opacity=".275"/><stop offset="1" stop-opacity="0"/></radialGradient><radialGradient id="d" gradientUnits="userSpaceOnUse" cx="450.909" cy="189.579" fx="450.909" fy="189.579" r="21.167" gradientTransform="matrix(0 -.0586 .10548 0 -16.772 47.697)"><stop offset="0" stop-opacity=".314"/><stop offset=".222" stop-opacity=".275"/><stop offset="1" stop-opacity="0"/></radialGradient><radialGradient id="e" gradientUnits="userSpaceOnUse" cx="450.909" cy="189.579" fx="450.909" fy="189.579" r="21.167" gradientTransform="matrix(0 .0586 -.10548 0 40.586 -5.646)"><stop offset="0" stop-opacity=".314"/><stop offset=".222" stop-opacity=".275"/><stop offset="1" stop-opacity="0"/></radialGradient><linearGradient id="f" gradientUnits="userSpaceOnUse" x1="254" y1="-147.5" x2="254" y2="-31.083" gradientTransform="matrix(.04688 0 0 .04688 0 10.08)"><stop offset="0" stop-color="#a4a4a4" stop-opacity="0"/><stop offset="1" stop-color="#fff" stop-opacity=".196"/></linearGradient><linearGradient id="g" gradientUnits="userSpaceOnUse" x1="254" y1="233.5" x2="254" y2="-105.167" gradientTransform="matrix(.04688 0 0 .04688 0 10.08)"><stop offset="0" stop-color="#585858" stop-opacity="0"/><stop offset="1" stop-color="#fafafa" stop-opacity=".196"/></linearGradient><linearGradient id="h" gradientUnits="userSpaceOnUse" x1="254" y1="-147.5" x2="254" y2="233.5" gradientTransform="matrix(.04688 0 0 .04688 0 10.08)"><stop offset="0" stop-color="#a4a4a4" stop-opacity="0"/><stop offset="1" stop-color="#fff" stop-opacity=".196"/></linearGradient></defs><path d="M2.977 21.027H20.84v.993H2.977zm0 0" fill="url(#a)"/><path d="M20.84 21.027h1.984v-.996H20.84zm0 0" fill="url(#b)"/><path d="M2.977 21.027H.992v.993h1.985zm0 0" fill="url(#c)"/><path d="M2.977 21.027H.992v-.996h1.985zm0 0" fill="url(#d)"/><path d="M20.84 21.027h1.984v.993H20.84zm0 0" fill="url(#e)"/><path d="M5.457 3.164h16.125c.547 0 .992.445.992.992V7.88a.994.994 0 0 1-.992.992H5.457a.994.994 0 0 1-.992-.992V4.156c0-.547.445-.992.992-.992zm0 0" fill="#7cb342"/><path d="M5.457 3.164h16.125c.547 0 .992.445.992.992V7.88a.994.994 0 0 1-.992.992H5.457a.994.994 0 0 1-.992-.992V4.156c0-.547.445-.992.992-.992zm0 0" fill="url(#f)"/><path d="M5.457 3.164a.989.989 0 0 0-.992.992v.125c0-.55.441-.992.992-.992h16.125c.55 0 .992.441.992.992v-.125a.989.989 0 0 0-.992-.992zm0 0" fill="#e6e6e6" fill-opacity=".588"/><path d="M5.457 3.094c-.586 0-1.062.476-1.062 1.062V7.88c0 .586.476 1.062 1.062 1.062h16.125c.586 0 1.063-.476 1.063-1.062V4.156c0-.586-.477-1.062-1.063-1.062zm0 .14h16.125c.512 0 .922.41.922.922V7.88c0 .512-.41.922-.922.922H5.457a.919.919 0 0 1-.922-.922V4.156c0-.511.41-.922.922-.922zm0 0" fill="#212121"/><path d="M1.984 5.148a.989.989 0 0 0-.992.993v13.89c0 .551.442.996.992.996h19.848a.994.994 0 0 0 .992-.996V7.63H9.426a.991.991 0 0 1-.992-.992V5.148zm0 0" fill="#9ccc65"/><path d="M1.984 5.148a.989.989 0 0 0-.992.993v13.89c0 .551.442.996.992.996h19.848a.994.994 0 0 0 .992-.996V7.63H9.426a.991.991 0 0 1-.992-.992V5.148zm0 0" fill="url(#g)"/><path d="M1.984 21.027a.992.992 0 0 1-.992-.996v-.12c0 .546.442.991.992.991h19.848a.994.994 0 0 0 .992-.992v.121c0 .551-.445.996-.992.996zm0 0" fill-opacity=".196"/><path d="M1.984 5.148a.989.989 0 0 0-.992.993v.125c0-.551.442-.993.992-.993h6.45v-.125zm0 0M9.363 7.691a.991.991 0 0 1-.992-.992v-.125c0 .551.445.996.992.992h13.461v.125zm0 0" fill="#e6e6e6" fill-opacity=".937"/><path d="M1.984 5.078c-.586 0-1.062.477-1.062 1.063v13.89c0 .59.476 1.067 1.062 1.067h19.848c.586 0 1.063-.477 1.063-1.067V7.488H9.425a.919.919 0 0 1-.921-.922V5.078zm0 .14h6.38v1.348c0 .59.476 1.063 1.062 1.063h13.328V20.03a.92.92 0 0 1-.922.926H1.984a.92.92 0 0 1-.921-.926V6.141c0-.512.41-.922.921-.922zm0 0" fill="#212121"/><path d="M8.93 10.11a.497.497 0 0 0-.496.495v1.985c0 .277.222.496.496.496h1.984a.492.492 0 0 0 .496-.496v-1.985a.494.494 0 0 0-.496-.496zm3.968 0a.497.497 0 0 0-.496.495v1.985c0 .277.223.496.496.496h1.985a.492.492 0 0 0 .496-.496v-1.985a.494.494 0 0 0-.496-.496zM8.93 14.077a.497.497 0 0 0-.496.496v1.985c0 .277.222.496.496.496h1.984a.492.492 0 0 0 .496-.496v-1.985a.494.494 0 0 0-.496-.496zm3.968 0a.497.497 0 0 0-.496.496v1.985c0 .277.223.496.496.496h1.985a.492.492 0 0 0 .496-.496v-1.985a.494.494 0 0 0-.496-.496zm0 0" fill="#7cb342"/><path d="M8.93 10.11a.497.497 0 0 0-.496.495v1.985c0 .277.222.496.496.496h1.984a.492.492 0 0 0 .496-.496v-1.985a.494.494 0 0 0-.496-.496zm3.968 0a.497.497 0 0 0-.496.495v1.985c0 .277.223.496.496.496h1.985a.492.492 0 0 0 .496-.496v-1.985a.494.494 0 0 0-.496-.496zM8.93 14.077a.497.497 0 0 0-.496.496v1.985c0 .277.222.496.496.496h1.984a.492.492 0 0 0 .496-.496v-1.985a.494.494 0 0 0-.496-.496zm3.968 0a.497.497 0 0 0-.496.496v1.985c0 .277.223.496.496.496h1.985a.492.492 0 0 0 .496-.496v-1.985a.494.494 0 0 0-.496-.496zm0 0" fill="url(#h)"/><path d="M8.93 10.04a.567.567 0 0 0-.567.565v1.985c0 .312.254.566.567.566h1.984a.567.567 0 0 0 .566-.566v-1.985a.567.567 0 0 0-.566-.566zm3.968 0a.567.567 0 0 0-.566.565v1.985c0 .312.254.566.566.566h1.985a.567.567 0 0 0 .566-.566v-1.985a.567.567 0 0 0-.566-.566zm-3.968.14h1.984c.238 0 .426.191.426.425v1.985a.422.422 0 0 1-.426.426H8.93a.422.422 0 0 1-.426-.426v-1.985c0-.234.187-.425.426-.425zm3.968 0h1.985c.238 0 .426.191.426.425v1.985a.422.422 0 0 1-.426.426h-1.985a.424.424 0 0 1-.425-.426v-1.985c0-.234.191-.425.425-.425zM8.93 14.008a.567.567 0 0 0-.567.566v1.985c0 .312.254.566.567.566h1.984a.567.567 0 0 0 .566-.566v-1.985a.567.567 0 0 0-.566-.566zm3.968 0a.567.567 0 0 0-.566.566v1.985c0 .312.254.566.566.566h1.985a.567.567 0 0 0 .566-.566v-1.985a.567.567 0 0 0-.566-.566zm-3.968.14h1.984c.238 0 .426.192.426.426v1.985a.422.422 0 0 1-.426.425H8.93a.422.422 0 0 1-.426-.425v-1.985c0-.234.187-.426.426-.426zm3.968 0h1.985c.238 0 .426.192.426.426v1.985a.422.422 0 0 1-.426.425h-1.985a.424.424 0 0 1-.425-.425v-1.985c0-.234.191-.426.425-.426zm0 0" fill="#212121"/></svg>
